X:1
T:Title
L:1/8
M:4/4
I:linebreak $
K:A
V:1 treble nm="Voice"
V:1
"A" cAcA BcAB | cAcA"E" B2 AB |"A" cAcA BcAB | cAcA"E" B2 AB |"A" cAcA BcAB | cAcA"E" B2 AB | %6
"D" dAdA BdAB | dAdA"E" B2 AB |"A" cA"E"BG"A" A4 ::"A" fege cece | fege"D" agfe | %11
"A" c2 cA"E" BABd |1"A" cA"E"BG"A" A3 e :|2"A" cA"E"BG"A" ABcd ||"E" e3 e fege |"A" aeee"D" fefg | %16
 agfe"A" c2 cA |"E" BABd"A" cA"E"BG |[M:2/4]"A" A3 A |] %19
